X: 3
T:Nail That Catfish to the Tree
C:Steve Rosen (@Copyright 1985, Steve Rosen)
M:C|
L:1/8
K:G
D-E \
|: "G"vG2B-G AGBG | cGAG [B2G2]BB | "D"uA-BAG FDAB | AGFD ((3EFE) D2 |
   "G"G2B-G AGBG | cGAG [B2G2]BB | "D"uA-BAG FDEF |\
  [1 "G"vG2 u[B4G4] vDE :|[2 "G"G2 [B4G4] uD2 ||
|: "C"[E4C4] [A4D4] | [c8E8] | "D"uA-BAG FDAB | AGFD ((3EFE) D2 |
   "C"[E4C4] [A4D4] | [c8E8] |\
  [1 "D"A-BAG FDEF | "G"vG2 [B4G4] uD2 :|[2 "D"d2c2 B2A2 | "G"[B6G6] D-E |]
N:Portland Collection, pg 146 - adapted by Peter Ostapenko.
N:Last update - PO 5/12/2007.
N:G Major
